src/assets/icons/5-icon-nextjs.svg

<svg width="65" height="64" viewBox="0 0 65 64" fill="none" xmlns="http://www.w3.org/2000/svg">
<g clip-path="url(#clip0_408_837)">
<mask id="mask0_408_837" style="mask-type:alpha" maskUnits="userSpaceOnUse" x="0" y="0" width="65" height="64">
<path d="M32.5828 64C50.2559 64 64.5828 49.6731 64.5828 32C64.5828 14.3269 50.2559 0 32.5828 0C14.9097 0 0.582764 14.3269 0.582764 32C0.582764 49.6731 14.9097 64 32.5828 64Z" fill="black"/>
</mask>
<g mask="url(#mask0_408_837)">
    <path d="M32.5827 62.9336C49.6668 62.9336 63.5161 49.0842 63.5161 32.0002C63.5161 14.9162 49.6668 1.06689 32.5827 1.06689C15.4987 1.06689 1.64941 14.9162 1.64941 32.0002C1.64941 49.0842 15.4987 62.9336 32.5827 62.9336Z" fill="black" stroke="white" stroke-width="6"/>
    <path d="M53.7411 56.0073L25.1665 19.2002H19.7827V44.7895H24.0898V24.6699L50.3601 58.6118C51.5456 57.8185 52.6748 56.9478 53.7411 56.0073Z" fill="url(#paint0_linear_408_837)"/>
    <path d="M45.7383 19.2002H41.4717V44.8002H45.7383V19.2002Z" fill="url(#paint1_linear_408_837)"/>
</g>
</g>
<defs>
<linearGradient id="paint0_linear_408_837" x1="39.3383" y1="41.4224" x2="51.9605" y2="57.0669" gradientUnits="userSpaceOnUse">
    <stop stop-color="white"/>
    <stop offset="1" stop-color="white" stop-opacity="0"/>
</linearGradient>
<linearGradient id="paint1_linear_408_837" x1="43.605" y1="19.2002" x2="43.5335" y2="38.0002" gradientUnits="userSpaceOnUse">
    <stop stop-color="#fff"/>
    <stop offset="1" stop-color="#fff" stop-opacity="0"/>
</linearGradient>
<clipPath id="clip0_408_837">
<rect width="64" height="64" fill="white" transform="translate(0.582764)"/>
</clipPath>
</defs>
</svg>

<svg xmlns="http://www.w3.org/2000/svg" width="65" height="64" fill="none"><g clip-path="url(#a)"><mask id="b" width="65" height="64" x="0" y="0" maskUnits="userSpaceOnUse" style="mask-type:alpha"><path fill="#000" d="M32.58 64a32 32 0 1 0 0-64 32 32 0 0 0 0 64Z"/></mask><g mask="url(#b)"><path fill="#000" stroke="#fff" stroke-width="6" d="M32.58 62.93a30.93 30.93 0 1 0 0-61.86 30.93 30.93 0 0 0 0 61.86Z"/><path fill="url(#c)" d="M53.74 56 25.17 19.2h-5.39v25.59h4.31V24.67l26.27 33.94a32.1 32.1 0 0 0 3.38-2.6Z"/><path fill="url(#d)" d="M45.74 19.2h-4.27v25.6h4.27V19.2Z"/></g></g><defs><linearGradient id="c" x1="39.34" x2="51.96" y1="41.42" y2="57.07" gradientUnits="userSpaceOnUse"><stop stop-color="#fff"/><stop offset="1" stop-color="#fff" stop-opacity="0"/></linearGradient><linearGradient id="d" x1="43.6" x2="43.53" y1="19.2" y2="38" gradientUnits="userSpaceOnUse"><stop stop-color="#fff"/><stop offset="1" stop-color="#fff" stop-opacity="0"/></linearGradient><clipPath id="a"><path fill="#fff" d="M.58 0h64v64h-64z"/></clipPath></defs></svg>
